src/svg/review.svg

<?xml version="1.0" encoding="UTF-8"?><svg id="_イヤー_2" xmlns="http://www.w3.org/2000/svg" viewBox="0 0 591.02334 591.02334"><defs><style>.cls-1{fill:#040000;}</style></defs><path class="cls-1" d="M526.40121,507.3095l-48.50589-49.18624c13.71894-18.65482,21.8415-41.79561,21.8415-66.86145,0-61.8065-49.37904-111.91066-110.29124-111.91066s-110.29124,50.10415-110.29124,111.91066,49.37904,111.91109,110.29124,111.91109c24.79584,0,47.67938-8.3026,66.10041-22.31819l48.62872,49.2972c3.07225,3.15727,7.09239,4.73613,11.11253,4.73613,4.01985,0,8.04144-1.57885,11.11398-4.73613,6.14652-6.31426,6.14652-16.52887,0-22.8424Zm-136.95563-36.11101c-43.50888,0-78.77876-35.78872-78.77876-79.93668s35.26987-79.9361,78.77876-79.9361,78.77876,35.78872,78.77876,79.9361-35.27161,79.93668-78.77876,79.93668Zm-123.28015-9.29293l.00174,.00319H131.56476c-39.45456,0-71.55253-32.09797-71.55253-71.55253V149.18604c0-39.45456,32.09797-71.55253,71.55253-71.55253h41.4584v-16.80249c0-2.59338,2.10176-4.69572,4.69572-4.69572h121.93653c2.59396,0,4.69572,2.10234,4.69572,4.69572v16.80249h45.74246c39.45456,0,71.55253,32.09797,71.55253,71.55253v102.14464c-2.48851-.58954-4.99845-1.11128-7.53505-1.56495-.12892-.02347-.25638-.04751-.38385-.06982-2.3593-.41572-4.73772-.7706-7.13439-1.0658-.2981-.03708-.59504-.08054-.89314-.11646-2.26486-.26391-4.54507-.46757-6.84093-.6214-.38211-.02636-.75959-.06518-1.1417-.08836-2.61105-.15383-5.23629-.24711-7.88297-.25493v-98.36292c0-21.9145-17.82628-39.74049-39.74049-39.74049h-45.74246v12.13458c0,2.59338-2.10176,4.69572-4.69572,4.69572h-121.93653c-2.59396,0-4.69572-2.10234-4.69572-4.69572v-12.13458h-41.4584c-21.9145,0-39.74049,17.82599-39.74049,39.74049v241.17017c0,21.91421,17.82599,39.7402,39.74049,39.7402h121.53269c3.10643,11.21595,7.51795,21.87713,13.06799,31.80914Zm71.50096-287.57372H142.22912c-6.52632,0-11.86603,5.33971-11.86603,11.86603v13.68708c0,6.52632,5.33971,11.86603,11.86603,11.86603h195.43727c6.52632,0,11.86603-5.33971,11.86603-11.86603v-13.68708c0-6.52632-5.33971-11.86603-11.86603-11.86603Zm-47.45754,99.60562c0-6.52632-5.33971-11.86603-11.86603-11.86603H142.22909c-6.52632,0-11.86603,5.33971-11.86603,11.86603v13.68709c0,6.52632,5.33971,11.86603,11.86603,11.86603h136.11374c6.52632,0,11.86603-5.33971,11.86603-11.86603v-13.68709Zm-37.4818,87.01179c0-6.52632-5.33971-11.86603-11.86603-11.86603h-98.63193c-6.52632,0-11.86603,5.33971-11.86603,11.86603v13.68709c0,6.52632,5.33971,11.86603,11.86603,11.86603h98.63193c6.52632,0,11.86603-5.33971,11.86603-11.86603v-13.68709Z"/></svg>

<svg id="レイヤー_2" data-name="レイヤー 2" xmlns="http://www.w3.org/2000/svg" viewBox="0 0 591.02 591.02"><defs><style>.cls-1{fill:#040000;}</style></defs><path class="cls-1" d="M526.4,507.31l-48.5-49.19a112.53,112.53,0,0,0,21.84-66.86c0-61.8-49.38-111.91-110.29-111.91s-110.3,50.11-110.3,111.91,49.38,111.91,110.3,111.91a108.76,108.76,0,0,0,66.1-22.32l48.62,49.3a15.4,15.4,0,0,0,22.23,0A16.44,16.44,0,0,0,526.4,507.31ZM389.45,471.2c-43.51,0-78.78-35.79-78.78-79.94s35.27-79.93,78.78-79.93,78.77,35.78,78.77,79.93S433,471.2,389.45,471.2Zm-123.28-9.29H131.56A71.63,71.63,0,0,1,60,390.36V149.19a71.64,71.64,0,0,1,71.55-71.56H173V60.83a4.69,4.69,0,0,1,4.7-4.69H299.66a4.69,4.69,0,0,1,4.69,4.69v16.8h45.74a71.64,71.64,0,0,1,71.56,71.56V251.33q-3.73-.89-7.54-1.56l-.38-.07c-2.36-.42-4.74-.77-7.14-1.07l-.89-.12c-2.27-.26-4.55-.46-6.84-.62-.38,0-.76-.06-1.14-.09-2.61-.15-5.24-.24-7.89-.25V149.19a39.78,39.78,0,0,0-39.74-39.74H304.35v12.13a4.7,4.7,0,0,1-4.69,4.7H177.72a4.7,4.7,0,0,1-4.7-4.7V109.45H131.56a39.78,39.78,0,0,0-39.74,39.74V390.36a39.79,39.79,0,0,0,39.74,39.74H253.1A143.93,143.93,0,0,0,266.17,461.91Zm71.5-287.58H142.23a11.9,11.9,0,0,0-11.87,11.87v13.68a11.9,11.9,0,0,0,11.87,11.87H337.67a11.9,11.9,0,0,0,11.86-11.87V186.2A11.9,11.9,0,0,0,337.67,174.33Zm-47.46,99.61a11.9,11.9,0,0,0-11.87-11.87H142.23a11.9,11.9,0,0,0-11.87,11.87v13.68a11.9,11.9,0,0,0,11.87,11.87H278.34a11.9,11.9,0,0,0,11.87-11.87Zm-37.48,87a11.9,11.9,0,0,0-11.87-11.87H142.23A11.9,11.9,0,0,0,130.36,361v13.69a11.9,11.9,0,0,0,11.87,11.86h98.63a11.9,11.9,0,0,0,11.87-11.86Z"/></svg>
